icons/midnadark/actions/24/category2parent.svg

<svg xmlns="http://www.w3.org/2000/svg" viewBox="0 0 22 22"><g transform="translate(-421.71-525.79)" color="#f2f2f2"><g transform="translate(421.71 525.79)"><path d="m3 3v16h9v-1h-8v-11h14v5h1v-9h-2v3h-2v-3h-8v3h-2v-3"/><path d="m13 13v1 5h6v-5-1h-1v1h-1v-1h-2v1h-1v-1h-1m1 2h4v3h-4v-3"/></g><path d="m427.71 534.79v1 5h6v-5-1h-1v1h-1v-1h-2v1h-1v-1h-1m1 2h4v3h-4v-3" fill="#1d99f3"/></g></svg>

<?xml version="1.0" encoding="UTF-8" standalone="no"?>
<!-- Created with Inkscape (http://www.inkscape.org/) -->

<svg
   xmlns:dc="http://purl.org/dc/elements/1.1/"
   xmlns:cc="http://creativecommons.org/ns#"
   xmlns:rdf="http://www.w3.org/1999/02/22-rdf-syntax-ns#"
   xmlns:svg="http://www.w3.org/2000/svg"
   xmlns="http://www.w3.org/2000/svg"
   xmlns:sodipodi="http://sodipodi.sourceforge.net/DTD/sodipodi-0.dtd"
   xmlns:inkscape="http://www.inkscape.org/namespaces/inkscape"
   width="22"
   height="22"
   id="svg3049"
   version="1.1"
   inkscape:version="0.91 r13725"
   sodipodi:docname="category2parent.svg"
   inkscape:export-filename="/home/uri/.kde/share/icons/NITRUX-KDE/16x16/actions/view-right-new.png"
   inkscape:export-xdpi="30"
   inkscape:export-ydpi="30">
  <defs
     id="defs3051">
    <style
       type="text/css"
       id="current-color-scheme">
      .ColorScheme-Text {
        color:#f2f2f2;
      }
      .ColorScheme-Background {
        color:#eff0f1;
      }
      .ColorScheme-Highlight {
        color:#3daee9;
      }
      .ColorScheme-ViewText {
        color:#31363b;
      }
      .ColorScheme-ViewBackground {
        color:#fcfcfc;
      }
      .ColorScheme-ViewHover {
        color:#93cee9;
      }
      .ColorScheme-ViewFocus{
        color:#3daee9;
      }
      .ColorScheme-ButtonText {
        color:#31363b;
      }
      .ColorScheme-ButtonBackground {
        color:#eff0f1;
      }
      .ColorScheme-ButtonHover {
        color:#93cee9;
      }
      .ColorScheme-ButtonFocus{
        color:#3daee9;
      }
      </style>
  </defs>
  <sodipodi:namedview
     id="base"
     pagecolor="#ffffff"
     bordercolor="#666666"
     borderopacity="1.0"
     inkscape:pageopacity="0.0"
     inkscape:pageshadow="2"
     inkscape:zoom="32.5"
     inkscape:cx="2.3930268"
     inkscape:cy="9.2709436"
     inkscape:document-units="px"
     inkscape:current-layer="layer1"
     showgrid="true"
     fit-margin-top="0"
     fit-margin-left="0"
     fit-margin-right="0"
     fit-margin-bottom="0"
     inkscape:window-width="1920"
     inkscape:window-height="1017"
     inkscape:window-x="0"
     inkscape:window-y="0"
     inkscape:window-maximized="1"
     inkscape:showpageshadow="false"
     borderlayer="true"
     inkscape:snap-smooth-nodes="false"
     inkscape:object-nodes="true"
     inkscape:snap-bbox="true">
    <sodipodi:guide
       position="2.0000044,20.00003"
       orientation="18,0"
       id="guide4067" />
    <sodipodi:guide
       position="2.0000044,2.0000296"
       orientation="0,18"
       id="guide4069" />
    <sodipodi:guide
       position="20.000004,2.0000296"
       orientation="-18,0"
       id="guide4071" />
    <sodipodi:guide
       position="20.000004,20.00003"
       orientation="0,-18"
       id="guide4073" />
    <sodipodi:guide
       position="3.0000044,19.00003"
       orientation="16,0"
       id="guide4077" />
    <sodipodi:guide
       position="3.0000044,3.0000296"
       orientation="0,16"
       id="guide4079" />
    <sodipodi:guide
       position="19.000004,3.0000296"
       orientation="-16,0"
       id="guide4081" />
    <sodipodi:guide
       position="19.000004,19.00003"
       orientation="0,-16"
       id="guide4083" />
    <inkscape:grid
       type="xygrid"
       id="grid4085" />
  </sodipodi:namedview>
  <metadata
     id="metadata3054">
    <rdf:RDF>
      <cc:Work
         rdf:about="">
        <dc:format>image/svg+xml</dc:format>
        <dc:type
           rdf:resource="http://purl.org/dc/dcmitype/StillImage" />
        <dc:title></dc:title>
      </cc:Work>
    </rdf:RDF>
  </metadata>
  <g
     inkscape:label="Capa 1"
     inkscape:groupmode="layer"
     id="layer1"
     transform="translate(-421.71429,-525.79074)">
    <path
       style="color:#f2f2f2;fill:currentColor;fill-opacity:1;stroke:none"
       d="m 3,3 0,16 9,0 0,-1 -8,0 0,-11 14,0 0,5 1,0 0,-9 -2,0 0,3 L 15,6 15,3 7,3 7,6 5,6 5,3 Z"
       transform="translate(421.71429,525.79074)"
       id="rect4089"
       class="ColorScheme-Text"
       inkscape:connector-curvature="0"
       sodipodi:nodetypes="ccccccccccccccccccc" />
    <path
       style="fill:currentColor;fill-opacity:1;stroke:none"
       d="M 13 13 L 13 14 L 13 19 L 19 19 L 19 14 L 19 13 L 18 13 L 18 14 L 17 14 L 17 13 L 15 13 L 15 14 L 14 14 L 14 13 L 13 13 z M 14 15 L 18 15 L 18 18 L 14 18 L 14 15 z "
       transform="translate(421.71429,525.79074)"
       id="rect4146"
       class="ColorScheme-Text" />
    <path
       inkscape:connector-curvature="0"
       style="color:#f2f2f2;fill:#1d99f3;fill-opacity:1;stroke:none"
       d="m 427.71429,534.79074 0,1 0,5 6,0 0,-5 0,-1 -1,0 0,1 -1,0 0,-1 -2,0 0,1 -1,0 0,-1 -1,0 z m 1,2 4,0 0,3 -4,0 0,-3 z"
       id="rect4146-7"
       class="ColorScheme-Text" />
  </g>
</svg>
